svgs/1F92E.svg

<svg xmlns="http://www.w3.org/2000/svg" xmlns:xlink="http://www.w3.org/1999/xlink" preserveAspectRatio="none" viewBox="0 0 72 72"><defs><path id="a" fill="#FCC21B" d="M36 5.6q-22.2 0-30.95 20.5Q.25 37.35.25 52.45q0 5.8 10.45 9.9 10.5 4.1 25.3 4.1t25.25-4.1q10.45-4.1 10.45-9.9 0-15.1-4.8-26.35Q58.2 5.6 36 5.6z"/><path id="b" fill="#2F2F2F" d="M36.85 38.65q-6.9 0-11.8 3.5-5 3.65-6.05 9.55-.4 1.9.55 3.25 1.35 1.8 6.3.75 7.9-1.65 11.35-1.65 3.5 0 10.2 1.1 3.9.7 5.1-.6.95-1.1.75-2.85-.7-5.85-4.85-9.35-4.45-3.7-11.55-3.7z"/><path id="c" fill="#62B342" d="M36.7 42.55q-5.498-.004-9 1.7-3.457 1.712-4.3 5.55l-.45 11.45q-1.475.242-2.85.5-6.6 1.4-6.6 3.35 0 1.95 6.6 3.3 6.65 1.4 16.05 1.4 9.35 0 16-1.4 6.65-1.35 6.65-3.3 0-1.95-6.65-3.35-.55-.1-1.15-.2-.248-.047-.5-.1L50 49.8q-.064-2.985-3.9-5.1-3.9-2.15-9.4-2.15z"/><path id="d" fill="#B4BF43" d="M25.6 54.35q.95.95 2.3.95 1.35 0 2.25-.95.95-.9.95-2.25t-.95-2.3q-.9-.9-2.25-.9t-2.3.9q-.9.95-.9 2.3 0 1.35.9 2.25M53.05 65.4q.3-.25.3-.6t-.3-.65q-.25-.25-.6-.25t-.65.25q-.25.3-.25.65 0 .35.25.6.3.3.65.3.35 0 .6-.3m-7.8-10.1q-.5 0-.85.3-.3.35-.3.85t.3.8q.35.35.85.35t.8-.35q.35-.3.35-.8t-.35-.85q-.3-.3-.8-.3m2.15 6q-.55 0-.95.4-.4.4-.4.95 0 .55.4.95.4.4.95.4.55 0 .95-.4.4-.4.4-.95 0-.55-.4-.95-.4-.4-.95-.4m-7.6-1.25q-.45.5-.45 1.2t.45 1.15q.5.5 1.2.5t1.15-.5q.5-.45.5-1.15t-.5-1.2q-.45-.45-1.15-.45t-1.2.45m5 7.05q.5-.5.5-1.2t-.5-1.2q-.5-.5-1.2-.5t-1.2.5q-.5.5-.5 1.2t.5 1.2q.5.5 1.2.5t1.2-.5m-8.95.25q.35-.3.35-.8t-.35-.85q-.3-.3-.8-.3t-.85.3q-.3.35-.3.85t.3.8q.35.35.85.35t.8-.35m-13.9-.15q.25-.2.25-.5t-.25-.55q-.2-.2-.5-.2t-.55.2q-.2.25-.2.55 0 .3.2.5.25.25.55.25.3 0 .5-.25M19.3 65q.35-.35.35-.85t-.35-.85q-.35-.35-.85-.35t-.85.35q-.35.35-.35.85t.35.85q.35.35.85.35t.85-.35m9.9-3.55q-.7-.7-1.75-.7t-1.8.7q-.7.75-.7 1.8t.7 1.75q.75.75 1.8.75T29.2 65q.75-.7.75-1.75t-.75-1.8m4.3-12.15q.25-.2.25-.55 0-.35-.25-.6-.2-.2-.55-.2-.35 0-.6.2-.2.25-.2.6t.2.55q.25.25.6.25t.55-.25m9.15-2.15q-.75.8-.75 1.9 0 1.1.75 1.85.8.8 1.9.8 1.1 0 1.85-.8.8-.75.8-1.85t-.8-1.9q-.75-.75-1.85-.75t-1.9.75M39 53.7q.5-.5.5-1.2t-.5-1.2q-.5-.5-1.2-.5t-1.2.5q-.5.5-.5 1.2t.5 1.2q.5.5 1.2.5t1.2-.5m-4.95 6.2q.6-.55.6-1.35t-.6-1.4q-.55-.55-1.35-.55t-1.4.55q-.55.6-.55 1.4 0 .8.55 1.35.6.6 1.4.6.8 0 1.35-.6z"/><path id="e" fill="#2F2F2F" d="M51.1 49.4q.45-.15.65-.6.25-.45.05-.9-.15-.45-.55-.65-.45-.25-.9-.1-1.6.55-3.45 1.45-3.75 1.75-6 3.75-.65.55-.3 1.4.4.75 1.3.6.05 0 2.9-.35 3.35-.2 5.75.4l.3.05q.95 0 1.1-.9.15-.45-.1-.85-.25-.45-.7-.55-2.25-.6-5.1-.5 2.55-1.45 5.05-2.25z"/><path id="f" fill="#2F2F2F" d="M25.05 48.6q-3.3-1.4-3.45-1.45-.45-.15-.9.1-.45.2-.6.65-.15.45.1.9.2.45.65.6.15 0 1.55.6 1.85.7 3.5 1.6-3 0-5.1.55-.45.1-.7.5-.25.4-.15.9.25.9 1.15.9l.3-.05q3.8-.95 8.65-.05.9.15 1.3-.6.4-.8-.3-1.4-2.25-2-6-3.75z"/></defs><use xlink:href="#a"/><use xlink:href="#b"/><use xlink:href="#c"/><use xlink:href="#d"/><use transform="translate(-11.45 -36.25) scale(1.32086)" xlink:href="#e"/><use transform="translate(-11.45 -36.25) scale(1.32086)" xlink:href="#f"/></svg>

<svg xmlns="http://www.w3.org/2000/svg" version="1.1" xmlns:xlink="http://www.w3.org/1999/xlink" preserveAspectRatio="none" x="0px" y="0px" width="72px" height="72px" viewBox="0 0 72 72">
<defs>
<g id="Layer4_0_MEMBER_0_MEMBER_0_MEMBER_0_MEMBER_0_FILL">
<path fill="#FCC21B" stroke="none" d="
M 36 5.6
Q 13.8 5.6 5.05 26.1 0.25 37.35 0.25 52.45 0.25 58.25 10.7 62.35 21.2 66.45 36 66.45 50.8 66.45 61.25 62.35 71.7 58.25 71.7 52.45 71.7 37.35 66.9 26.1 58.2 5.6 36 5.6 Z"/>
</g>

<g id="Layer3_0_FILL">
<path fill="#2F2F2F" stroke="none" d="
M 36.85 38.65
Q 29.95 38.65 25.05 42.15 20.05 45.8 19 51.7 18.6 53.6 19.55 54.95 20.9 56.75 25.85 55.7 33.75 54.05 37.2 54.05 40.7 54.05 47.4 55.15 51.3 55.85 52.5 54.55 53.45 53.45 53.25 51.7 52.55 45.85 48.4 42.35 43.95 38.65 36.85 38.65 Z"/>
</g>

<g id="Layer2_0_FILL">
<path fill="#62B342" stroke="none" d="
M 36.7 42.55
Q 31.2021484375 42.5458984375 27.7 44.25 24.24296875 45.962109375 23.4 49.8
L 22.95 61.25
Q 21.475 61.4921875 20.1 61.75 13.5 63.15 13.5 65.1 13.5 67.05 20.1 68.4 26.75 69.8 36.15 69.8 45.5 69.8 52.15 68.4 58.8 67.05 58.8 65.1 58.8 63.15 52.15 61.75 51.6 61.65 51 61.55 50.751953125 61.503125 50.5 61.45
L 50 49.8
Q 49.9359375 46.8146484375 46.1 44.7 42.2 42.55 36.7 42.55 Z"/>
</g>

<g id="Layer1_0_FILL">
<path fill="#B4BF43" stroke="none" d="
M 25.6 54.35
Q 26.55 55.3 27.9 55.3 29.25 55.3 30.15 54.35 31.1 53.45 31.1 52.1 31.1 50.75 30.15 49.8 29.25 48.9 27.9 48.9 26.55 48.9 25.6 49.8 24.7 50.75 24.7 52.1 24.7 53.45 25.6 54.35
M 53.05 65.4
Q 53.35 65.15 53.35 64.8 53.35 64.45 53.05 64.15 52.8 63.9 52.45 63.9 52.1 63.9 51.8 64.15 51.55 64.45 51.55 64.8 51.55 65.15 51.8 65.4 52.1 65.7 52.45 65.7 52.8 65.7 53.05 65.4
M 45.25 55.3
Q 44.75 55.3 44.4 55.6 44.1 55.95 44.1 56.45 44.1 56.95 44.4 57.25 44.75 57.6 45.25 57.6 45.75 57.6 46.05 57.25 46.4 56.95 46.4 56.45 46.4 55.95 46.05 55.6 45.75 55.3 45.25 55.3
M 47.4 61.3
Q 46.85 61.3 46.45 61.7 46.05 62.1 46.05 62.65 46.05 63.2 46.45 63.6 46.85 64 47.4 64 47.95 64 48.35 63.6 48.75 63.2 48.75 62.65 48.75 62.1 48.35 61.7 47.95 61.3 47.4 61.3
M 39.8 60.05
Q 39.35 60.55 39.35 61.25 39.35 61.95 39.8 62.4 40.3 62.9 41 62.9 41.7 62.9 42.15 62.4 42.65 61.95 42.65 61.25 42.65 60.55 42.15 60.05 41.7 59.6 41 59.6 40.3 59.6 39.8 60.05
M 44.8 67.1
Q 45.3 66.6 45.3 65.9 45.3 65.2 44.8 64.7 44.3 64.2 43.6 64.2 42.9 64.2 42.4 64.7 41.9 65.2 41.9 65.9 41.9 66.6 42.4 67.1 42.9 67.6 43.6 67.6 44.3 67.6 44.8 67.1
M 35.85 67.35
Q 36.2 67.05 36.2 66.55 36.2 66.05 35.85 65.7 35.55 65.4 35.05 65.4 34.55 65.4 34.2 65.7 33.9 66.05 33.9 66.55 33.9 67.05 34.2 67.35 34.55 67.7 35.05 67.7 35.55 67.7 35.85 67.35
M 21.95 67.2
Q 22.2 67 22.2 66.7 22.2 66.4 21.95 66.15 21.75 65.95 21.45 65.95 21.15 65.95 20.9 66.15 20.7 66.4 20.7 66.7 20.7 67 20.9 67.2 21.15 67.45 21.45 67.45 21.75 67.45 21.95 67.2
M 19.3 65
Q 19.65 64.65 19.65 64.15 19.65 63.65 19.3 63.3 18.95 62.95 18.45 62.95 17.95 62.95 17.6 63.3 17.25 63.65 17.25 64.15 17.25 64.65 17.6 65 17.95 65.35 18.45 65.35 18.95 65.35 19.3 65
M 29.2 61.45
Q 28.5 60.75 27.45 60.75 26.4 60.75 25.65 61.45 24.95 62.2 24.95 63.25 24.95 64.3 25.65 65 26.4 65.75 27.45 65.75 28.5 65.75 29.2 65 29.95 64.3 29.95 63.25 29.95 62.2 29.2 61.45
M 33.5 49.3
Q 33.75 49.1 33.75 48.75 33.75 48.4 33.5 48.15 33.3 47.95 32.95 47.95 32.6 47.95 32.35 48.15 32.15 48.4 32.15 48.75 32.15 49.1 32.35 49.3 32.6 49.55 32.95 49.55 33.3 49.55 33.5 49.3
M 42.65 47.15
Q 41.9 47.95 41.9 49.05 41.9 50.15 42.65 50.9 43.45 51.7 44.55 51.7 45.65 51.7 46.4 50.9 47.2 50.15 47.2 49.05 47.2 47.95 46.4 47.15 45.65 46.4 44.55 46.4 43.45 46.4 42.65 47.15
M 39 53.7
Q 39.5 53.2 39.5 52.5 39.5 51.8 39 51.3 38.5 50.8 37.8 50.8 37.1 50.8 36.6 51.3 36.1 51.8 36.1 52.5 36.1 53.2 36.6 53.7 37.1 54.2 37.8 54.2 38.5 54.2 39 53.7
M 34.05 59.9
Q 34.65 59.35 34.65 58.55 34.65 57.75 34.05 57.15 33.5 56.6 32.7 56.6 31.9 56.6 31.3 57.15 30.75 57.75 30.75 58.55 30.75 59.35 31.3 59.9 31.9 60.5 32.7 60.5 33.5 60.5 34.05 59.9 Z"/>
</g>

<g id="Layer0_0_MEMBER_0_FILL">
<path fill="#2F2F2F" stroke="none" d="
M 51.1 49.4
Q 51.55 49.25 51.75 48.8 52 48.35 51.8 47.9 51.65 47.45 51.25 47.25 50.8 47 50.35 47.15 48.75 47.7 46.9 48.6 43.15 50.35 40.9 52.35 40.25 52.9 40.6 53.75 41 54.5 41.9 54.35 41.95 54.35 44.8 54 48.15 53.8 50.55 54.4
L 50.85 54.45
Q 51.8 54.45 51.95 53.55 52.1 53.1 51.85 52.7 51.6 52.25 51.15 52.15 48.9 51.55 46.05 51.65 48.6 50.2 51.1 49.4 Z"/>
</g>

<g id="Layer0_0_MEMBER_1_FILL">
<path fill="#2F2F2F" stroke="none" d="
M 25.05 48.6
Q 21.75 47.2 21.6 47.15 21.15 47 20.7 47.25 20.25 47.45 20.1 47.9 19.95 48.35 20.2 48.8 20.4 49.25 20.85 49.4 21 49.4 22.4 50 24.25 50.7 25.9 51.6 22.9 51.6 20.8 52.15 20.35 52.25 20.1 52.65 19.85 53.05 19.95 53.55 20.2 54.45 21.1 54.45
L 21.4 54.4
Q 25.2 53.45 30.05 54.35 30.95 54.5 31.35 53.75 31.75 52.95 31.05 52.35 28.8 50.35 25.05 48.6 Z"/>
</g>
</defs>

<g id="_____1">
<g transform="matrix( 1, 0, 0, 1, 0,0) ">
<use xlink:href="#Layer4_0_MEMBER_0_MEMBER_0_MEMBER_0_MEMBER_0_FILL"/>
</g>
</g>

<g id="_____1_copy">
<g transform="matrix( 1, 0, 0, 1, 0,0) ">
<use xlink:href="#Layer3_0_FILL"/>
</g>
</g>

<g id="Layer_5">
<g transform="matrix( 1, 0, 0, 1, 0,0) ">
<use xlink:href="#Layer2_0_FILL"/>
</g>
</g>

<g transform="matrix( 1, 0, 0, 1, 0,0) ">
<use xlink:href="#Layer1_0_FILL"/>
</g>

<g transform="matrix( 1.32086181640625, 0, 0, 1.32086181640625, -11.45,-36.25) ">
<use xlink:href="#Layer0_0_MEMBER_0_FILL"/>
</g>

<g transform="matrix( 1.32086181640625, 0, 0, 1.32086181640625, -11.45,-36.25) ">
<use xlink:href="#Layer0_0_MEMBER_1_FILL"/>
</g>
</svg>
